webroot/img/new-desgin/why_besa/icon-5.svg

<svg width="104" height="105" viewBox="0 0 104 105" fill="none" xmlns="http://www.w3.org/2000/svg">
<g id="Frame">
<g id="Group">
<path id="Vector" d="M49.4926 36.9434H67.6114C68.0424 36.9434 68.4557 36.7722 68.7604 36.4674C69.0652 36.1627 69.2364 35.7493 69.2364 35.3184C69.2364 34.8874 69.0652 34.4741 68.7604 34.1693C68.4557 33.8646 68.0424 33.6934 67.6114 33.6934H49.4926C49.0617 33.6934 48.6483 33.8646 48.3436 34.1693C48.0388 34.4741 47.8676 34.8874 47.8676 35.3184C47.8676 35.7493 48.0388 36.1627 48.3436 36.4674C48.6483 36.7722 49.0617 36.9434 49.4926 36.9434ZM24.7813 47.6456H67.6146C68.0456 47.6456 68.4589 47.4744 68.7637 47.1697C69.0684 46.8649 69.2396 46.4516 69.2396 46.0206C69.2396 45.5896 69.0684 45.1763 68.7637 44.8716C68.4589 44.5668 68.0456 44.3956 67.6146 44.3956H24.7796C24.3487 44.3956 23.9353 44.5668 23.6306 44.8716C23.3258 45.1763 23.1546 45.5896 23.1546 46.0206C23.1546 46.4516 23.3258 46.8649 23.6306 47.1697C23.9353 47.4744 24.3487 47.6456 24.7796 47.6456H24.7813ZM58.5504 55.1141H49.4926C49.0617 55.1141 48.6483 55.2853 48.3436 55.5901C48.0388 55.8948 47.8676 56.3081 47.8676 56.7391C47.8676 57.1701 48.0388 57.5834 48.3436 57.8882C48.6483 58.1929 49.0617 58.3641 49.4926 58.3641H58.5504C58.9814 58.3641 59.3947 58.1929 59.6994 57.8882C60.0042 57.5834 60.1754 57.1701 60.1754 56.7391C60.1754 56.3081 60.0042 55.8948 59.6994 55.5901C59.3947 55.2853 58.9814 55.1141 58.5504 55.1141ZM42.9033 55.1141H24.7845C24.3535 55.1141 23.9402 55.2853 23.6355 55.5901C23.3307 55.8948 23.1595 56.3081 23.1595 56.7391C23.1595 57.1701 23.3307 57.5834 23.6355 57.8882C23.9402 58.1929 24.3535 58.3641 24.7845 58.3641H42.9033C43.3342 58.3641 43.7476 58.1929 44.0523 57.8882C44.357 57.5834 44.5283 57.1701 44.5283 56.7391C44.5283 56.3081 44.357 55.8948 44.0523 55.5901C43.7476 55.2853 43.3342 55.1141 42.9033 55.1141ZM56.3745 65.1127H49.4991C49.0682 65.1127 48.6548 65.2839 48.3501 65.5887C48.0453 65.8934 47.8741 66.3068 47.8741 66.7377C47.8741 67.1687 48.0453 67.582 48.3501 67.8868C48.6548 68.1915 49.0682 68.3627 49.4991 68.3627H56.3745C56.8055 68.3627 57.2188 68.1915 57.5235 67.8868C57.8283 67.582 57.9995 67.1687 57.9995 66.7377C57.9995 66.3068 57.8283 65.8934 57.5235 65.5887C57.2188 65.2839 56.8055 65.1127 56.3745 65.1127ZM42.9033 65.1241H24.7845C24.3535 65.1241 23.9402 65.2953 23.6355 65.6001C23.3307 65.9048 23.1595 66.3181 23.1595 66.7491C23.1595 67.1801 23.3307 67.5934 23.6355 67.8982C23.9402 68.2029 24.3535 68.3741 24.7845 68.3741H42.9033C43.3342 68.3741 43.7476 68.2029 44.0523 67.8982C44.357 67.5934 44.5283 67.1801 44.5283 66.7491C44.5283 66.3181 44.357 65.9048 44.0523 65.6001C43.7476 65.2953 43.3342 65.1241 42.9033 65.1241ZM54.3465 75.1341H49.4926C49.0617 75.1341 48.6483 75.3053 48.3436 75.6101C48.0388 75.9148 47.8676 76.3281 47.8676 76.7591C47.8676 77.1901 48.0388 77.6034 48.3436 77.9082C48.6483 78.2129 49.0617 78.3841 49.4926 78.3841H54.3465C54.7775 78.3841 55.1908 78.2129 55.4956 77.9082C55.8003 77.6034 55.9715 77.1901 55.9715 76.7591C55.9715 76.3281 55.8003 75.9148 55.4956 75.6101C55.1908 75.3053 54.7775 75.1341 54.3465 75.1341ZM42.9033 75.1341H24.7845C24.3535 75.1341 23.9402 75.3053 23.6355 75.6101C23.3307 75.9148 23.1595 76.3281 23.1595 76.7591C23.1595 77.1901 23.3307 77.6034 23.6355 77.9082C23.9402 78.2129 24.3535 78.3841 24.7845 78.3841H42.9033C43.3342 78.3841 43.7476 78.2129 44.0523 77.9082C44.357 77.6034 44.5283 77.1901 44.5283 76.7591C44.5283 76.3281 44.357 75.9148 44.0523 75.6101C43.7476 75.3053 43.3342 75.1341 42.9033 75.1341Z" fill="url(#paint0_linear_31_280)"/>
<path id="Vector_2" d="M91.5444 96.2887C91.5381 92.6485 90.4368 89.0944 88.3839 86.0883C86.331 83.0822 83.4212 80.7632 80.0329 79.4326C81.7107 78.3165 83.0854 76.8014 84.0337 75.0233C84.982 73.2452 85.4742 71.2595 85.4663 69.2444C85.4584 67.2292 84.9507 65.2475 83.9885 63.4768C83.0263 61.7062 81.6398 60.202 79.9533 59.099V16.5695C79.9503 14.0104 78.9323 11.557 77.1228 9.74747C75.3132 7.93793 72.8598 6.92 70.3008 6.91699H35.49C35.0624 6.93523 34.655 7.10384 34.3395 7.39312L12.922 28.8106C12.7601 28.9872 12.6355 29.1947 12.5556 29.4206C12.4758 29.6464 12.4423 29.8861 12.4573 30.1252V86.191C12.4603 88.7501 13.4782 91.2035 15.2877 93.013C17.0973 94.8226 19.5507 95.8405 22.1098 95.8435H55.3036C55.2466 96.088 55.2447 96.3421 55.2982 96.5874C55.3516 96.8326 55.4591 97.0629 55.6127 97.2615C55.7663 97.4601 55.9622 97.6219 56.1861 97.7353C56.4101 97.8487 56.6566 97.9108 56.9075 97.917H89.9161C90.3478 97.9166 90.7617 97.7449 91.067 97.4396C91.3723 97.1344 91.544 96.7205 91.5444 96.2887ZM88.2018 94.667H58.6235C60.9554 77.1056 85.8748 77.1251 88.2018 94.667ZM82.2868 69.291C81.913 81.0154 64.9106 81.0137 64.5401 69.291C64.9139 57.5634 81.9163 57.5666 82.2868 69.291ZM33.865 12.4647V21.9271C33.8633 23.6259 33.1877 25.2547 31.9864 26.4559C30.7852 27.6572 29.1565 28.3328 27.4576 28.3345H17.9953L33.865 12.4647ZM22.1114 92.5935C20.414 92.5913 18.7867 91.9161 17.5865 90.7159C16.3863 89.5156 15.711 87.8884 15.7089 86.191V31.5845H27.4576C30.018 31.5815 32.4727 30.563 34.2831 28.7526C36.0936 26.9421 37.112 24.4875 37.115 21.9271V10.167H70.3008C71.9982 10.1691 73.6254 10.8444 74.8256 12.0446C76.0259 13.2449 76.7011 14.8721 76.7033 16.5695V57.6332C75.6332 57.3268 74.5258 57.1698 73.4126 57.1669C61.3909 57.1539 56.8328 73.022 66.7908 79.431C63.9917 80.533 61.5098 82.3123 59.5676 84.6096C57.6255 86.9068 56.2838 89.6501 55.6628 92.5935H22.1114Z" fill="url(#paint1_linear_31_280)"/>
</g>
</g>
<defs>
<linearGradient id="paint0_linear_31_280" x1="27.4711" y1="37.7757" x2="67.4043" y2="89.5257" gradientUnits="userSpaceOnUse">
<stop stop-color="#007BC4"/>
<stop offset="1" stop-color="#0B4C97"/>
</linearGradient>
<linearGradient id="paint1_linear_31_280" x1="19.8616" y1="15.2295" x2="103.595" y2="106.687" gradientUnits="userSpaceOnUse">
<stop stop-color="#007BC4"/>
<stop offset="1" stop-color="#0B4C97"/>
</linearGradient>
</defs>
</svg>

<svg width="104" height="105" fill="none" xmlns="http://www.w3.org/2000/svg"><path d="M49.493 36.943H67.61a1.625 1.625 0 1 0 0-3.25H49.493a1.625 1.625 0 0 0 0 3.25ZM24.78 47.646h42.834a1.625 1.625 0 0 0 0-3.25H24.78a1.625 1.625 0 1 0 0 3.25h.001Zm33.77 7.468h-9.058a1.625 1.625 0 1 0 0 3.25h9.057a1.625 1.625 0 1 0 0-3.25Zm-15.648 0H24.785a1.625 1.625 0 1 0 0 3.25h18.118a1.625 1.625 0 0 0 0-3.25Zm13.471 9.999H49.5a1.625 1.625 0 1 0 0 3.25h6.875a1.625 1.625 0 1 0 0-3.25Zm-13.47.011h-18.12a1.625 1.625 0 1 0 0 3.25h18.12a1.625 1.625 0 0 0 0-3.25Zm11.442 10.01h-4.853a1.625 1.625 0 1 0 0 3.25h4.853a1.625 1.625 0 0 0 0-3.25Zm-11.443 0H24.785a1.625 1.625 0 1 0 0 3.25h18.118a1.625 1.625 0 0 0 0-3.25Z" fill="url(#a)"/><path d="M91.544 96.289a18.143 18.143 0 0 0-11.511-16.856 12.18 12.18 0 0 0-.08-20.334v-42.53a9.664 9.664 0 0 0-9.652-9.652H35.49a1.817 1.817 0 0 0-1.15.476L12.922 28.811a1.782 1.782 0 0 0-.465 1.314v56.066a9.664 9.664 0 0 0 9.653 9.653h33.194a1.69 1.69 0 0 0 1.603 2.073h33.01a1.63 1.63 0 0 0 1.627-1.628Zm-3.342-1.622H58.624c2.331-17.561 27.25-17.542 29.578 0Zm-5.915-25.376c-.374 11.724-17.376 11.723-17.747 0 .374-11.728 17.376-11.724 17.747 0ZM33.865 12.465v9.462a6.414 6.414 0 0 1-6.407 6.407h-9.463l15.87-15.87ZM22.111 92.594a6.41 6.41 0 0 1-6.402-6.403V31.584h11.749a9.669 9.669 0 0 0 9.657-9.657v-11.76h33.186a6.41 6.41 0 0 1 6.402 6.403v41.063a12.069 12.069 0 0 0-3.29-.466c-12.022-.013-16.58 15.855-6.622 22.264a18.18 18.18 0 0 0-11.128 13.163H22.11Z" fill="url(#b)"/><defs><linearGradient id="a" x1="27.471" y1="37.776" x2="67.404" y2="89.526" gradientUnits="userSpaceOnUse"><stop stop-color="#007BC4"/><stop offset="1" stop-color="#0B4C97"/></linearGradient><linearGradient id="b" x1="19.862" y1="15.229" x2="103.595" y2="106.687" gradientUnits="userSpaceOnUse"><stop stop-color="#007BC4"/><stop offset="1" stop-color="#0B4C97"/></linearGradient></defs></svg>
